X:0654
T:London March.
M:C
L:1/8
Q:1/2=72
I: :: ||
Z:Jack Campin * www.campin.me.uk * 2009
K:D
F2 F>F F2 E2 |D>FA>d {d}B2A2|B>dA>d G>dF>d|E>DE>F E2E>E|
F2 F>F F2 E2 |D>FA>d {c}B2A2|B>dA>d G>cd>g|f2 e>d d4  :|
a>gf>g a>ag>f|e>fg>e    f2e2|d>dd>e f>ff>g|a>ag>f f2e2 |
A>GF>G A>AG>F|E>FG>E    F2E2|D>DD>E F>FF>G|A>AG>F F2F>E|
F2 F>F F2 E2 |D>FA>d {c}B2A2|B>dA>d G>dF>d|E>DE>F E2E>E|
F2 F>F F2 E2 |D>FA>d {c}B2A2|Bd`Ad  G>cd>g|f2 e>d d4  |]

